public/svg/docker.svg

<svg width="101" height="73" viewBox="0 0 101 73" fill="none" xmlns="http://www.w3.org/2000/svg">
<path d="M99.566 27.6944C99.2948 27.479 96.763 25.5673 91.4236 25.5673C90.0137 25.5735 88.6068 25.6944 87.2166 25.9289C86.1832 18.8458 80.3271 15.3924 80.0645 15.2375L78.6308 14.4106L77.6878 15.7714C76.5069 17.5993 75.6448 19.6143 75.1387 21.7307C74.1827 25.774 74.7641 29.5717 76.818 32.8184C74.3378 34.2006 70.3592 34.5408 69.554 34.5709H3.68251C1.96196 34.5732 0.565824 35.9636 0.556447 37.684C0.479614 43.4547 1.4573 49.191 3.44138 54.6104C5.71052 60.5612 9.0864 64.9446 13.4784 67.6272C18.4001 70.6413 26.3961 72.3636 35.46 72.3636C39.5546 72.3765 43.6416 72.0059 47.6673 71.2571C53.2633 70.2295 58.6481 68.2736 63.599 65.4699C67.6784 63.1075 71.3499 60.1022 74.4714 56.5696C79.6902 50.6619 82.7992 44.0824 85.1113 38.2352H86.0327C91.7466 38.2352 95.2603 35.9487 97.1979 34.0326C98.4856 32.8106 99.4909 31.3219 100.143 29.6708L100.552 28.4738L99.566 27.6944Z" fill="#2496ED"/>
<path d="M9.78822 32.6419H18.6153C19.041 32.6419 19.386 32.2968 19.386 31.8712V24.0086C19.3884 23.5828 19.0452 23.2359 18.6196 23.2335C18.6182 23.2335 18.6167 23.2335 18.6153 23.2335H9.78822C9.36249 23.2335 9.01752 23.5786 9.01752 24.0042V24.0086V31.8711C9.01752 32.2968 9.36249 32.6419 9.78822 32.6419Z" fill="#2496ED"/>
<path d="M21.9524 32.6419H30.7795C31.2052 32.6419 31.5502 32.2968 31.5502 31.8712V24.0086C31.5526 23.5828 31.2094 23.2359 30.7837 23.2335C30.7823 23.2335 30.7808 23.2335 30.7794 23.2335H21.9523C21.5242 23.2335 21.1772 23.5805 21.1772 24.0086V31.8711C21.1798 32.2975 21.526 32.6419 21.9524 32.6419Z" fill="#2496ED"/>
<path d="M34.3016 32.6419H43.1287C43.5544 32.6419 43.8994 32.2968 43.8994 31.8712V24.0086C43.9018 23.5828 43.5586 23.2359 43.1329 23.2335C43.1315 23.2335 43.1299 23.2335 43.1285 23.2335H34.3015C33.8757 23.2335 33.5308 23.5786 33.5308 24.0042V24.0086V31.8711C33.5309 32.2968 33.876 32.6419 34.3016 32.6419Z" fill="#2496ED"/>
<path d="M46.5045 32.6419H55.3316C55.758 32.6419 56.1043 32.2977 56.1066 31.8712V24.0086C56.1066 23.5805 55.7597 23.2335 55.3316 23.2335H46.5045C46.0788 23.2335 45.7338 23.5786 45.7338 24.0042V24.0086V31.8711C45.7338 32.2968 46.0789 32.6419 46.5045 32.6419Z" fill="#2496ED"/>
<path d="M21.9524 21.3304H30.7795C31.2058 21.328 31.5502 20.9816 31.5502 20.5554V12.6928C31.5502 12.2671 31.2051 11.9221 30.7795 11.9221H21.9524C21.5261 11.9221 21.1797 12.2664 21.1774 12.6928V20.5554C21.1797 20.9825 21.5253 21.328 21.9524 21.3304Z" fill="#2496ED"/>
<path d="M34.3016 21.3304H43.1287C43.5549 21.328 43.8994 20.9816 43.8994 20.5554V12.6928C43.8994 12.2671 43.5542 11.9221 43.1287 11.9221H34.3016C33.8759 11.9221 33.5309 12.2672 33.5309 12.6928V20.5554C33.5309 20.9816 33.8753 21.328 34.3016 21.3304Z" fill="#2496ED"/>
<path d="M46.5045 21.3304H55.3316C55.7587 21.328 56.1043 20.9825 56.1066 20.5554V12.6928C56.1043 12.2664 55.758 11.9221 55.3316 11.9221H46.5045C46.0788 11.9221 45.7338 12.2672 45.7338 12.6928V20.5554C45.7338 20.9816 46.0782 21.328 46.5045 21.3304Z" fill="#2496ED"/>
<path d="M46.5045 10.0146H55.3316C55.758 10.0146 56.1043 9.6702 56.1066 9.24391V1.37691C56.1043 0.950478 55.758 0.606201 55.3316 0.606201H46.5045C46.0788 0.606201 45.7338 0.951178 45.7338 1.37691V9.24377C45.7338 9.6695 46.0789 10.0146 46.5045 10.0146Z" fill="#2496ED"/>
<path d="M58.8151 32.6419H67.6421C68.0686 32.6419 68.4148 32.2977 68.4172 31.8712V24.0086C68.4172 23.5805 68.0703 23.2335 67.6421 23.2335H58.8151C58.3895 23.2335 58.0444 23.5786 58.0444 24.0042V24.0086V31.8711C58.0444 32.2968 58.3895 32.6419 58.8151 32.6419Z" fill="#2496ED"/>
</svg>

<svg width="101" height="73" viewBox="0 0 101 73" fill="none" xmlns="http://www.w3.org/2000/svg"><path d="M99.566 27.694c-.271-.215-2.803-2.127-8.142-2.127-1.41.006-2.817.127-4.207.362-1.034-7.083-6.89-10.537-7.153-10.691l-1.433-.827-.943 1.36a19.22 19.22 0 0 0-2.55 5.96c-.955 4.043-.374 7.84 1.68 11.087-2.48 1.383-6.459 1.723-7.264 1.753H3.683a3.13 3.13 0 0 0-3.127 3.113A47.4 47.4 0 0 0 3.441 54.61c2.27 5.951 5.645 10.335 10.037 13.017 4.922 3.014 12.918 4.737 21.982 4.737a65.625 65.625 0 0 0 12.207-1.107A51.036 51.036 0 0 0 63.6 65.47a43.8 43.8 0 0 0 10.872-8.9c5.22-5.908 8.328-12.488 10.64-18.335h.922c5.714 0 9.227-2.286 11.165-4.202a12.183 12.183 0 0 0 2.945-4.362l.409-1.197-.986-.78z" fill="#2496ED"/><path d="M9.788 32.642h8.827a.77.77 0 0 0 .771-.77v-7.863a.77.77 0 0 0-.766-.776H9.788a.77.77 0 0 0-.77.771v7.867c0 .426.344.77.77.77zm12.164 0h8.827a.77.77 0 0 0 .771-.77v-7.863a.77.77 0 0 0-.766-.776h-8.832a.775.775 0 0 0-.775.776v7.862c.003.427.349.77.775.77zm12.35 0h8.827a.77.77 0 0 0 .77-.77v-7.863a.77.77 0 0 0-.766-.776H34.3a.77.77 0 0 0-.77.771v7.867c0 .426.345.77.77.77zm12.203 0h8.827a.775.775 0 0 0 .775-.77v-7.863a.775.775 0 0 0-.775-.776h-8.828a.77.77 0 0 0-.77.771v7.867c0 .426.345.77.77.77zM21.952 21.33h8.827a.775.775 0 0 0 .771-.775v-7.862a.77.77 0 0 0-.77-.77h-8.828a.775.775 0 0 0-.775.77v7.862a.78.78 0 0 0 .775.775zm12.35 0h8.827a.775.775 0 0 0 .77-.775v-7.862a.77.77 0 0 0-.77-.77h-8.827a.77.77 0 0 0-.771.77v7.862c0 .427.344.773.77.775zm12.203 0h8.827a.78.78 0 0 0 .775-.775v-7.862a.775.775 0 0 0-.775-.77h-8.828a.77.77 0 0 0-.77.77v7.862c0 .427.344.773.77.775zm0-11.315h8.827a.775.775 0 0 0 .775-.771V1.377a.775.775 0 0 0-.775-.77h-8.828a.77.77 0 0 0-.77.77v7.867c0 .425.345.77.77.77zm12.31 22.627h8.827a.775.775 0 0 0 .775-.77v-7.863a.775.775 0 0 0-.775-.776h-8.827a.77.77 0 0 0-.77.771v7.867c0 .426.344.77.77.77z" fill="#2496ED"/></svg>
